X:1
T: Pop Goes The Weasel
C:
R:Jig
Q:180
K:G
M:6/8
L:1/16
D2|G4G2 A4A2|B2d2B2 G4D2|G4G2 A4A2|B6 G4D2|G4G2 A4A2|B2d2B2 G4z2|e6 A4d2|B6 G4z2|
g4g2 e4g2|f2a2f2 d4d2|g4g2 e4g2|f6 d4z2|c4B2 c4d2|e4f2 g6|g6 A4d2|B6 G4D2|
G4G2 A4A2|B2d2B2 G4D2|G4G2 A4A2|B6 G4D2|G4G2 A4A2|B2d2B2 G4z2|e6 A4d2|B6 G4z2|
g2f2g2 e2f2g2|f2a2f2 d4d2|g2f2g2 e2f2g2|f6 d4z2|c4B2 c4d2|e4f2 g6|g6 A4d2|B6 G4||
